X: 203
T:Touching Cloth
M:4/4
L:1/8
C:James Kelly
S:The Ring Sessions
R:Reel
K:E
BEE2cBGc|Bceg fgec|BEE2cBGB|efgef2ec|!
BEE2cBGc|Bceg faga|bgeg fgec|Bege fgec:||!
|:Be (3eee) Bege|Bege fgec|Be (3eee) Bege|(3fga) gef2ec|!
_Be (3eee) Bege|Bege faga|bgeg fgec|Bege fgec:||
